Pods/ProtonCore-UIFoundations/libraries/UIFoundations/Sources/Assets.xcassets/Images/IconSet/ic-clock-rotate-left.imageset/ic-clock-rotate-left.svg

<svg width="24" height="24" viewBox="0 0 24 24" fill="none" xmlns="http://www.w3.org/2000/svg">
<path fill-rule="evenodd" clip-rule="evenodd" d="M11.942 3.75C7.73825 3.75 4.26986 6.85141 3.71564 10.8701L4.49042 10.0999C4.78418 9.8079 5.26046 9.8079 5.55422 10.0999C5.84798 10.3919 5.84798 10.8654 5.55422 11.1574L3.63303 13.0673C3.22177 13.4761 2.55497 13.4761 2.14371 13.0673L0.222518 11.1574C-0.071243 10.8654 -0.071243 10.3919 0.222518 10.0999C0.516279 9.8079 0.99256 9.8079 1.28632 10.0999L2.18951 10.9978C2.69416 6.08052 6.87152 2.25 11.942 2.25C17.3521 2.25 21.7455 6.61103 21.7455 12C21.7455 17.389 17.3521 21.75 11.942 21.75C9.20043 21.75 6.71987 20.6298 4.94099 18.8252L6.00923 17.7722C7.51684 19.3016 9.61686 20.25 11.942 20.25C16.5321 20.25 20.2455 16.5522 20.2455 12C20.2455 7.44784 16.5321 3.75 11.942 3.75ZM13.6734 14.7788C13.9672 15.0708 14.4435 15.0708 14.7372 14.7788C15.031 14.4867 15.031 14.0133 14.7372 13.7212L12.6942 11.6903V7.5C12.6942 7.08702 12.3574 6.75223 11.942 6.75223C11.5265 6.75223 11.1897 7.08702 11.1897 7.5V12C11.1897 12.1983 11.269 12.3885 11.41 12.5288L13.6734 14.7788Z" fill="#0C0C14"/>
</svg>

<svg xmlns="http://www.w3.org/2000/svg" width="24" height="24" viewBox="0 0 24 24">
  <g class="ic-clock-rotate-left">
    <path fill-rule="evenodd" d="M11.944 3.75c-4.204 0-7.672 3.101-8.227 7.12l.775-.77a.755.755 0 0 1 1.064 0 .745.745 0 0 1 0 1.057l-1.921 1.91a1.058 1.058 0 0 1-1.49 0l-1.92-1.91a.745.745 0 0 1 0-1.057.755.755 0 0 1 1.063 0l.903.898C2.696 6.08 6.873 2.25 11.944 2.25c5.41 0 9.803 4.361 9.803 9.75s-4.393 9.75-9.803 9.75a9.803 9.803 0 0 1-7.001-2.925l1.068-1.053a8.303 8.303 0 0 0 5.933 2.478c4.59 0 8.303-3.698 8.303-8.25s-3.713-8.25-8.303-8.25Zm1.731 11.029a.755.755 0 0 0 1.064 0 .745.745 0 0 0 0-1.058l-2.043-2.03V7.5a.75.75 0 0 0-.752-.748.75.75 0 0 0-.753.748V12c0 .198.08.389.22.529l2.264 2.25Z" class="Icon"/>
  </g>
</svg>
